!!!!SEGMENT: pl-stab--27c--001-009_nowakiewicz-kazimierz--missa-in-b-agnus-dei.krn
!!!cenid: 18xx:3458
!!!COM: Nowakiewicz, Kazimierz
!!!COM-rismid: pe30020309
!!!CDT: <1800->1824
!!!CNT: Polish
!!!OPR: Missa in B
!!!OTL: Agnus Dei
!!!OMV: 009
!!!PDT:
!!!AGN:
!!!SMS-siglum: PL-STAb
!!!SMS-shelfmark: 27c
!!!SMS-shelfwork: 001-009 M
!!!SMS-variant:
!!!SMS-altvar:
!!!NIFC-rismid: 301050705
!!!URL-scan: https://repozytorium.nifc.pl/islandora/object/pl-stab%3A3750/datastream/PDF/view
!!!ONB-nifc: UWAGA: części Mszy: 1. Kyrie, 2. Gloria, 3. Credo, 4. Et incarnatus, 5. Et resurrexit, 6. Sanctus, 7. Pleni sunt, 8. Benedictus, 9. Agnus Dei, 10. Dona nobis
!!!key: g
**kern	**fba	**kern	**dynam	**kern	**dynam	**kern	**text	**kern	**text	**kern	**text	**kern	**text	**kern	**kern	**kern	**kern	**dynam
*part11	*part11	*part10	*part10	*part9	*part9	*part8	*part8	*part7	*part7	*part6	*part6	*part5	*part5	*part4	*part3	*part2	*part1	*part1
*staff11	*	*staff10	*	*staff9	*	*staff8	*staff8	*staff7	*staff7	*staff6	*staff6	*staff5	*staff5	*staff4	*staff3	*staff2	*staff1	*
*IGcont	*	*	*	*	*	*IGcoro	*	*IGcoro	*	*IGcoro	*	*IGcoro	*	*	*	*	*	*
*ICklav	*	*ICstr	*	*ICstr	*	*ICvox	*	*ICvox	*	*ICvox	*	*ICvox	*	*ICbrass	*ICbrass	*ICww	*ICww	*
*Iorgan	*	*Ivioln	*	*Ivioln	*	*Ibass	*	*Itenor	*	*Ialto	*	*Isoprn	*	*Icor	*Icor	*Iclars	*Iclars	*
*I"Organo	*	*I"Violino Secundo	*	*I"Violino Primo	*	*I"Baſso	*	*I"Tenore	*	*I"Alto	*	*I"Canto	*	*I"Cornu Secundo in B.	*I"Cornu Primo in B.	*I"Clarinetto 2do in B.	*I"Clarinetto Primo in B.	*
*I'org	*	*I'vl 2	*	*I'vl 1	*	*I'B	*	*I'T	*	*I'A	*	*I'S	*	*I'cor 2 in B|♭	*I'cor 1 in B|♭	*I'cl 2 in B|♭	*I'cl 1 in B|♭	*
*clefF4	*	*clefG2	*	*clefG2	*	*clefF4	*	*clefC4	*	*clefC3	*	*clefC1	*	*clefG2	*clefG2	*clefG2	*clefG2	*
*	*	*	*	*	*	*	*	*	*	*	*	*	*	*ITrd1c2	*ITrd1c2	*ITrd1c2	*ITrd1c2	*
*k[b-e-]	*	*k[b-e-]	*	*k[b-e-]	*	*k[b-e-]	*	*k[e-b-]	*	*k[e-b-]	*	*k[b-e-]	*	*k[b-e-]	*k[b-e-]	*k[b-e-]	*k[b-e-]	*
*B-:	*	*B-:	*	*B-:	*	*B-:	*	*B-:	*	*B-:	*	*B-:	*	*B-:	*B-:	*B-:	*B-:	*
*M3/4	*	*M3/4	*	*M3/4	*	*M3/4	*	*M3/4	*	*M3/4	*	*M3/4	*	*M3/4	*M3/4	*M3/4	*M3/4	*
*2\right	*	*2\right	*	*2\right	*	*2\right	*	*2\right	*	*2\right	*	*2\right	*	*	*	*2\right	*2\right	*
=1	=1	=1	=1	=1	=1	=1	=1	=1	=1	=1	=1	=1	=1	=1	=1	=1	=1	=1
!	!	!	!	!	!	!	!	!LO:TX:a:t=adagio:rj	!	!	!	!LO:TX:a:t=adagio:rj	!	!	!	!	!	!
!	!	!LO:TX:a:t=andante:rj	!LO:DY:a:t=for:rj	!LO:TX:a:t=andante:rj	!	!	!	!	!	!	!	!	!	!LO:TX:a:t=Agnus Tacet	!LO:TX:a:t=Agnus Tacet	!LO:TX:a:t=adagio:rj	!LO:TX:a:t=Adagio	!
8G\L	x -	8b-\L	f	8dd\L	.	2G\	A-	2B-\	A-	2g\	A-	2dd\	A-	2.ryy	2.ryy	0.r	0.r	.
8G\	.	8b-\	.	8dd\	.	.	.	.	.	.	.	.	.	.	.	.	.	.
8G\	.	8b-\	.	8dd\	.	.	.	.	.	.	.	.	.	.	.	.	.	.
8G\	.	8b-\	.	8dd\J	.	.	.	.	.	.	.	.	.	.	.	.	.	.
8G\	.	8b-\	.	8gg\L	.	4G\	-gnus	4B-\	-gnus	4g\	-gnus	4dd\	-gnus	.	.	.	.	.
8G\J	.	8b-\J	.	8gg\J	.	.	.	.	.	.	.	.	.	.	.	.	.	.
=2	=2	=2	=2	=2	=2	=2	=2	=2	=2	=2	=2	=2	=2	=2	=2	=2	=2	=2
*tremolo	*	*tremolo	*	*	*	*	*	*	*	*	*	*	*	*	*	*	*	*
8G\L	x 6	8b-\L	.	16ff\LL	.	4G\	De-	4B-\	De-	4g\	De-	4ee-\	De-	2.ryy	2.ryy	.	.	.
.	.	.	.	16ee-\	.	.	.	.	.	.	.	.	.	.	.	.	.	.
8G\	.	8b-\	.	16dd\	.	.	.	.	.	.	.	.	.	.	.	.	.	.
.	.	.	.	16ee-\JJ	.	.	.	.	.	.	.	.	.	.	.	.	.	.
*	*	*	*	*tremolo	*	*	*	*	*	*	*	*	*	*	*	*	*	*
8G\	.	8b-\	.	8ee-\L	.	4G\	-i	4B-\	-i	4g\	-i	4ee-\	-i	.	.	.	.	.
8G\	.	8b-\	.	8ee-\	.	.	.	.	.	.	.	.	.	.	.	.	.	.
8G\	.	8b-\	.	8ee-\	.	8r	.	8r	.	8r	.	8r	.	.	.	.	.	.
8G\J	.	8b-\J	.	8ee-\J	.	8G\	qui	8B-\	qui	8g\	qui	8ee-\	qui	.	.	.	.	.
*	*	*	*	*Xtremolo	*	*	*	*	*	*	*	*	*	*	*	*	*	*
=3	=3	=3	=3	=3	=3	=3	=3	=3	=3	=3	=3	=3	=3	=3	=3	=3	=3	=3
8G\L	x 6	8b-\L	.	8ee-\L	.	4G\	tol-	4B-\	tol-	4g\	tol-	4ee-\	tol-	2.ryy	2.ryy	.	.	.
8G\	x 5	8b-\	.	8ee-\	.	.	.	.	.	.	.	.	.	.	.	.	.	.
8G\	.	8b-\	.	8ee-\	.	4G\	-lis	4B-\	-lis	4g\	-lis	4ee-\	-lis	.	.	.	.	.
8G\	.	8b-\	.	8ee-\J	.	.	.	.	.	.	.	.	.	.	.	.	.	.
8G\	.	8b-\	.	8dd\L	.	4G\	pec-	4B-\	pec-	4g\	pec-	4dd\	pec-	.	.	.	.	.
8G\J	.	8b-\J	.	8dd\J	.	.	.	.	.	.	.	.	.	.	.	.	.	.
=4	=4	=4	=4	=4	=4	=4	=4	=4	=4	=4	=4	=4	=4	=4	=4	=4	=4	=4
!	!	!LO:N:acc=#	!	!	!	!	!	!	!	!	!	!	!	!	!	!	!	!
8G\L	#4 #2	8en/L	.	2.cc#X\	.	2G\	-ca-	2A\	-ca-	2en\	-ca-	2cc#X\	-ca-	2.ryy	2.ryy	.	.	.
8G\	.	8e/	.	.	.	.	.	.	.	.	.	.	.	.	.	.	.	.
8G\	.	8e/	.	.	.	.	.	.	.	.	.	.	.	.	.	.	.	.
8G\	.	8e/	.	.	.	.	.	.	.	.	.	.	.	.	.	.	.	.
8G\	.	8e/	.	.	.	4G\	-ta	4A\	-ta	4e\	-ta	4cc#\	-ta	.	.	.	.	.
8G\J	.	8e/J	.	.	.	.	.	.	.	.	.	.	.	.	.	.	.	.
=5	=5	=5	=5	=5	=5	=5	=5	=5	=5	=5	=5	=5	=5	=5	=5	=5	=5	=5
!	!	!	!	!LO:SIC:v:s=8cc#\L	!	!	!	!	!	!	!	!	!	!	!	!	!	!
8F\L	x 6	8a/L	.	8cc\L	.	4F\	mun-	4A\	mun-	4f\	mun-	8cc\L	mun-	2.ryy	2.ryy	0.r	0.r	.
8F\	.	8a/	.	8dd\J	.	.	.	.	.	.	.	8dd\J	.	.	.	.	.	.
8F\	.	8a/	.	8dd\L	.	4F\	-di	4A\	-di	4f\	-di	4dd\	-di	.	.	.	.	.
8F\	.	8a/	.	8dd\	.	.	.	.	.	.	.	.	.	.	.	.	.	.
8F\	.	8a/	.	8dd\	.	8r	.	8r	.	8r	.	8r	.	.	.	.	.	.
8F\J	.	8a/J	.	8dd\J	.	8F\	qui	8A\	mi-	8f\	qui	8dd\	qui	.	.	.	.	.
=6	=6	=6	=6	=6	=6	=6	=6	=6	=6	=6	=6	=6	=6	=6	=6	=6	=6	=6
*	*	*Xtremolo	*	*tremolo	*	*	*	*	*	*	*	*	*	*	*	*	*	*
!	!	!	!	!LO:LB:g=original	!	!	!	!	!	!	!	!LO:PB:g=original	!	!	!	!	!	!
8F\L	x 6	8a/L	.	8dd\L	.	4F\	tol-	4A\	-se-	4f\	tol-	4dd\	tol-	2.ryy	2.ryy	.	.	.
8F\	5 -	8a/	.	8dd\	.	.	.	.	.	.	.	.	.	.	.	.	.	.
8F\	.	8a/	.	8dd\	.	4F\	-lis	4A\	-re-	4f\	-lis	4dd\	-lis	.	.	.	.	.
8F\	.	8a/	.	8dd\J	.	.	.	.	.	.	.	.	.	.	.	.	.	.
*	*	*	*	*Xtremolo	*	*	*	*	*	*	*	*	*	*	*	*	*	*
8F\	.	8a-X/	.	8cc\L	.	4F\	pec-	4A-X\	-re	4f\	pec-	4ccn\	pec-	.	.	.	.	.
8F\J	.	8a-/J	.	8cc\J	.	.	.	.	.	.	.	.	.	.	.	.	.	.
=7	=7	=7	=7	=7	=7	=7	=7	=7	=7	=7	=7	=7	=7	=7	=7	=7	=7	=7
*	*	*tremolo	*	*	*	*	*	*	*	*	*	*	*	*	*	*	*	*
!	!	!	!	!	!	!	!	!	!	!LO:LB:g=original	!	!	!	!	!	!	!	!
8F\L	4# 2n	8d/L	.	2.bn\	.	2F\	-ca-	2G/	no-	2d\	-ca-	2bn\	-ca-	2.ryy	2.ryy	.	.	.
8F\	.	8d/	.	.	.	.	.	.	.	.	.	.	.	.	.	.	.	.
8F\	.	8d/	.	.	.	.	.	.	.	.	.	.	.	.	.	.	.	.
8F\	.	8d/	.	.	.	.	.	.	.	.	.	.	.	.	.	.	.	.
8F\	.	8d/	.	.	.	4F\	-ta	4G/	-bis	4d\	-ta	4b\	-ta	.	.	.	.	.
8F\J	.	8d/J	.	.	.	.	.	.	.	.	.	.	.	.	.	.	.	.
=8	=8	=8	=8	=8	=8	=8	=8	=8	=8	=8	=8	=8	=8	=8	=8	=8	=8	=8
*	*	*Xtremolo	*	*	*	*	*	*	*ij	*	*	*	*	*	*	*	*	*
!LO:LB:g=original	!	!LO:LB:g=original	!	!	!	!LO:LB:g=original	!	!LO:LB:g=original	!	!	!	!	!	!	!	!	!	!
8E-\L	x 6	16e-/LL	.	16cc\LL	.	4E-\	mun-	4G/	no-	4e-\	mun-	4cc\	mun-	2.ryy	2.ryy	.	.	.
.	.	16f/	.	16dd\	.	.	.	.	.	.	.	.	.	.	.	.	.	.
8E-\	.	16g/	.	16ee-X\	.	.	.	.	.	.	.	.	.	.	.	.	.	.
.	.	16f/JJ	.	16dd\JJ	.	.	.	.	.	.	.	.	.	.	.	.	.	.
*	*	*	*	*tremolo	*	*	*	*	*	*	*	*	*	*	*	*	*	*
8E-\	.	8e-/L	.	8cc\L	.	4E-\	-di	4G/	-bis	4e-\	-di	4cc\	-di	.	.	.	.	.
*	*	*	*	*	*	*	*	*	*Xij	*	*	*	*	*	*	*	*	*
8E-\	.	8g/	.	8cc\	.	.	.	.	.	.	.	.	.	.	.	.	.	.
8E-\	.	8g/	.	8cc\	.	4r	.	4r	.	4r	.	4r	.	.	.	.	.	.
8E-\J	.	8g/J	.	8cc\J	.	.	.	.	.	.	.	.	.	.	.	.	.	.
*	*	*	*	*Xtremolo	*	*	*	*	*	*	*	*	*	*	*	*	*	*
=9	=9	=9	=9	=9	=9	=9	=9	=9	=9	=9	=9	=9	=9	=9	=9	=9	=9	=9
!	!	!	!	!	!	!	!	!LO:SIC:v:s=2B-\	!	!	!	!	!	!	!	!	!	!
8En\L	6 5	2g/ 2b-	.	4.gg\	.	2En\	mi-	2Bn\	a-	2g\	mi-	2cc\	mi-	2.ryy	2.ryy	0.r	0.r	.
8E\	.	.	.	.	.	.	.	.	.	.	.	.	.	.	.	.	.	.
8E\	.	.	.	.	.	.	.	.	.	.	.	.	.	.	.	.	.	.
8E\	.	.	.	8een\	.	.	.	.	.	.	.	.	.	.	.	.	.	.
!	!	!	!	!	!	!	!	!LO:SIC:v:s=4B-\	!	!	!	!	!	!	!	!	!	!
8E\	.	8g/L	.	8cc\L	.	4E\	-se-	4B\	-gnus	4g\	-se-	4cc\	-se-	.	.	.	.	.
8E\J	.	8g/J	.	8b-\J	.	.	.	.	.	.	.	.	.	.	.	.	.	.
*Xtremolo	*	*	*	*	*	*	*	*	*	*	*	*	*	*	*	*	*	*
=10	=10	=10	=10	=10	=10	=10	=10	=10	=10	=10	=10	=10	=10	=10	=10	=10	=10	=10
8F\L	.	8f/L	.	8a\L	.	4F\	-re-	4A\	De-	2f\	-re-	4cc\	-re-	2.ryy	2.ryy	.	.	.
8F\	.	8f/J	.	8ff\J	.	.	.	.	.	.	.	.	.	.	.	.	.	.
*	*	*tremolo	*	*	*	*	*	*	*	*	*	*	*	*	*	*	*	*
8A\	6 5	8f/L	.	8ee-X\L	.	4A\	-re	4c\	-i	.	.	4ee-X\	.	.	.	.	.	.
8A\	.	8f/	.	8ee-\J	.	.	.	.	.	.	.	.	.	.	.	.	.	.
8B-\	.	8f/	.	8dd\L	.	4B-\	.	4B-\	qui	4f\	-re	4dd\	-re	.	.	.	.	.
8B-\J	.	8f/J	.	8dd\J	.	.	.	.	.	.	.	.	.	.	.	.	.	.
*	*	*Xtremolo	*	*	*	*	*	*	*	*	*	*	*	*	*	*	*	*
=11	=11	=11	=11	=11	=11	=11	=11	=11	=11	=11	=11	=11	=11	=11	=11	=11	=11	=11
8E-\L	x 6	8g/L	.	8cc\L	.	4E-\	no-	4e-\	tol-	4g\	no-	8cc\L	no-	2.ryy	2.ryy	.	.	.
8E-\J	.	8e-/	.	16ee-\L	.	.	.	.	.	.	.	16ee-\L	.	.	.	.	.	.
.	.	.	.	16cc\JJ	.	.	.	.	.	.	.	16cc\JJ	.	.	.	.	.	.
*tremolo	*	*	*	*	*	*	*	*	*	*	*	*	*	*	*	*	*	*
8F\L	6 4	8d/	.	8b-/L	.	2F\	.	4d\	.	2f\	.	4b-\	.	.	.	.	.	.
8F\	.	8d/	.	8b-/	.	.	.	.	.	.	.	.	.	.	.	.	.	.
8F\	5 3	8c/	.	8a/	.	.	.	4c\	.	.	.	4a\	.	.	.	.	.	.
8F\J	.	8c/J	.	8a/J	.	.	.	.	.	.	.	.	.	.	.	.	.	.
*Xtremolo	*	*	*	*	*	*	*	*	*	*	*	*	*	*	*	*	*	*
=12	=12	=12	=12	=12	=12	=12	=12	=12	=12	=12	=12	=12	=12	=12	=12	=12	=12	=12
!	!	!	!	!LO:N:vis=8	!	!	!	!	!	!	!	!	!	!	!	!	!	!
4BB-/	.	4d/	.	4b-\	.	4BB-/	-bis	4d\	-lis	4f\	-bis	4b-\	-bis	2.ryy	2.ryy	.	.	.
4r	.	8B-/	.	16r	.	4r	.	4r	.	4r	.	4r	.	.	.	.	.	.
!	!	!	!	!	!LO:DY:a:t=p.:rj	!	!	!	!	!	!	!	!	!	!	!	!	!
.	.	.	.	16bb-\LL|	p	.	.	.	.	.	.	.	.	.	.	.	.	.
.	.	8r	.	(16een\	.	.	.	.	.	.	.	.	.	.	.	.	.	.
.	.	.	.	16ff\JJ)	.	.	.	.	.	.	.	.	.	.	.	.	.	.
!	!	!	!	!LO:LB:g=original	!	!	!	!	!	!	!	!	!	!	!	!	!	!
4r	.	4r	.	(16cc\LL	.	4r	.	4r	.	4r	.	4r	.	.	.	.	.	.
.	.	.	.	16dd\)	.	.	.	.	.	.	.	.	.	.	.	.	.	.
.	.	.	.	(16a\	.	.	.	.	.	.	.	.	.	.	.	.	.	.
.	.	.	.	16b-\JJ)	.	.	.	.	.	.	.	.	.	.	.	.	.	.
=13	=13	=13	=13	=13	=13	=13	=13	=13	=13	=13	=13	=13	=13	=13	=13	=13	=13	=13
*	*	*tremolo	*	*	*	*	*	*	*	*	*	*	*	*	*	*	*	*
!	!	!	!LO:DY:a:t=p.:rj	!	!	!	!	!	!	!	!	!	!	!	!	!	!	!LO:DY:a:t=p.:rj
8c\L	x 6	8f/L	p	(16b-/LL	.	0.r	.	0.r	.	0.r	.	0.r	.	2.ryy	2.ryy	2.f/	2.ff\	p
.	.	.	.	16a/)	.	.	.	.	.	.	.	.	.	.	.	.	.	.
8c\	.	8f/	.	(16g/	.	.	.	.	.	.	.	.	.	.	.	.	.	.
.	.	.	.	16f/JJ)	.	.	.	.	.	.	.	.	.	.	.	.	.	.
8A\	.	8f/	.	(16f/LL	.	.	.	.	.	.	.	.	.	.	.	.	.	.
.	.	.	.	16a/)	.	.	.	.	.	.	.	.	.	.	.	.	.	.
8A\J	.	8f/	.	(16cc/	.	.	.	.	.	.	.	.	.	.	.	.	.	.
.	.	.	.	16ee-/JJ)	.	.	.	.	.	.	.	.	.	.	.	.	.	.
8B-\L	.	8f/	.	(16ee-\LL	.	.	.	.	.	.	.	.	.	.	.	.	.	.
.	.	.	.	16dd\)	.	.	.	.	.	.	.	.	.	.	.	.	.	.
8d\J	x 6	8f/J	.	(16cc\	.	.	.	.	.	.	.	.	.	.	.	.	.	.
.	.	.	.	16b-\JJ)	.	.	.	.	.	.	.	.	.	.	.	.	.	.
=14	=14	=14	=14	=14	=14	=14	=14	=14	=14	=14	=14	=14	=14	=14	=14	=14	=14	=14
8c\L	x 6	8f/L	.	(16b-\LL	.	.	.	.	.	.	.	.	.	2.ryy	2.ryy	2.f/	2.ff\	.
.	.	.	.	16a\)	.	.	.	.	.	.	.	.	.	.	.	.	.	.
8c\	.	8f/	.	(16g\	.	.	.	.	.	.	.	.	.	.	.	.	.	.
.	.	.	.	16f\JJ)	.	.	.	.	.	.	.	.	.	.	.	.	.	.
8A\	6 5	8f/	.	(16f/LL	.	.	.	.	.	.	.	.	.	.	.	.	.	.
.	.	.	.	16a/)	.	.	.	.	.	.	.	.	.	.	.	.	.	.
8A\	.	8f/	.	(16cc/	.	.	.	.	.	.	.	.	.	.	.	.	.	.
.	.	.	.	16ee-/JJ)	.	.	.	.	.	.	.	.	.	.	.	.	.	.
8B-\	.	8f/	.	16ee-\LL	.	.	.	.	.	.	.	.	.	.	.	.	.	.
.	.	.	.	16dd\	.	.	.	.	.	.	.	.	.	.	.	.	.	.
8d\J	x 6	8f/J	.	16gg\	.	.	.	.	.	.	.	.	.	.	.	.	.	.
.	.	.	.	16ff\JJ	.	.	.	.	.	.	.	.	.	.	.	.	.	.
=15	=15	=15	=15	=15	=15	=15	=15	=15	=15	=15	=15	=15	=15	=15	=15	=15	=15	=15
8c\L	x 6	8f/L	.	16ff\LL	.	.	.	.	.	.	.	.	.	2.ryy	2.ryy	4f/	8ff\L	.
.	.	.	.	16ee-\	.	.	.	.	.	.	.	.	.	.	.	.	.	.
8c\	.	8f/	.	16dd\	.	.	.	.	.	.	.	.	.	.	.	.	8ee-\J	.
.	.	.	.	16ee-\JJ	.	.	.	.	.	.	.	.	.	.	.	.	.	.
8A\	6 5	8f/	.	4ee-\	.	.	.	.	.	.	.	.	.	.	.	4cc\	4ee-\	.
8A\	.	8f/	.	.	.	.	.	.	.	.	.	.	.	.	.	.	.	.
8B-\	.	8f/	.	4dd\	.	.	.	.	.	.	.	.	.	.	.	4b-\	4dd\	.
8d\J	.	8f/J	.	.	.	.	.	.	.	.	.	.	.	.	.	.	.	.
*	*	*Xtremolo	*	*	*	*	*	*	*	*	*	*	*	*	*	*	*	*
=16	=16	=16	=16	=16	=16	=16	=16	=16	=16	=16	=16	=16	=16	=16	=16	=16	=16	=16
!LO:LB:g=original	!	!	!	!	!	!	!	!	!	!	!	!	!	!	!	!	!	!
!LO:TX:a:t=P:problem:mixedbeam	!	!LO:LB:g=original	!	!	!	!	!	!	!	!	!	!	!	!	!	!	!	!
8E-\L	6 5	16f/LL	.	16dd\LL	.	.	.	.	.	.	.	.	.	2.ryy	2.ryy	4r	4r	.
.	.	16e-/	.	16cc\	.	.	.	.	.	.	.	.	.	.	.	.	.	.
8E-\	.	16g/	.	16ee-\	.	.	.	.	.	.	.	.	.	.	.	.	.	.
.	.	16e-/JJ	.	16cc\JJ	.	.	.	.	.	.	.	.	.	.	.	.	.	.
8F\	x 4	4d/	.	4b-/	.	.	.	.	.	.	.	.	.	.	.	4b-\	4dd\	.
8F\	.	.	.	.	.	.	.	.	.	.	.	.	.	.	.	.	.	.
8FF/	x 3	4c/	.	4a/	.	.	.	.	.	.	.	.	.	.	.	4a\	4cc\	.
8FF/J	.	.	.	.	.	.	.	.	.	.	.	.	.	.	.	.	.	.
=17	=17	=17	=17	=17	=17	=17	=17	=17	=17	=17	=17	=17	=17	=17	=17	=17	=17	=17
!LO:TX:a:t=P:problem:mixedbeam	!	!LO:TX:a:t=P:problem:mixedbeam	!LO:DY:a:t=for	!	!LO:DY:a:t=for.	!	!	!	!	!	!	!	!	!	!	!	!	!
8BB-/L	.	8d/L	f	8b-\L	f	2B-\	a-	2d\	a-	2b-\	A-	2ff\	A-	2.ryy	2.ryy	4b-\	4b-\	.
8B-\	.	8dd\	.	8ff\	.	.	.	.	.	.	.	.	.	.	.	.	.	.
8B-\	.	8dd\	.	8ff\	.	.	.	.	.	.	.	.	.	.	.	4r	4r	.
8B-\	.	8dd\	.	8ff\	.	.	.	.	.	.	.	.	.	.	.	.	.	.
8B-\	.	8dd\	.	8ff\	.	4B-\	-gnus	4d\	-gnus	4b-\	-gnus	4ff\	-gnus	.	.	4r	4r	.
8B-\J	.	8dd\J	.	8bb-\J	.	.	.	.	.	.	.	.	.	.	.	.	.	.
=18	=18	=18	=18	=18	=18	=18	=18	=18	=18	=18	=18	=18	=18	=18	=18	=18	=18	=18
*tremolo	*	*tremolo	*	*	*	*	*	*	*	*	*	*	*	*	*	*	*	*
!	!	!	!	!LO:LB:g=original	!	!	!	!	!	!	!	!LO:LB:g=original	!	!	!	!	!	!
8B-\L	x 4	8ee-\L	.	16aa\LL	.	4B-\	De-	4e-\	De-	4b-\	De-	4gg\	De-	2.ryy	2.ryy	0.r	0.r	.
.	.	.	.	16gg\	.	.	.	.	.	.	.	.	.	.	.	.	.	.
8B-\	.	8ee-\	.	16ff#X\	.	.	.	.	.	.	.	.	.	.	.	.	.	.
.	.	.	.	16gg\JJ	.	.	.	.	.	.	.	.	.	.	.	.	.	.
*	*	*	*	*tremolo	*	*	*	*	*	*	*	*	*	*	*	*	*	*
8B-\	.	8ee-\	.	8gg\L	.	4B-\	-i	4e-\	-i	4b-\	-i	4gg\	-i	.	.	.	.	.
8B-\	.	8ee-\	.	8gg\	.	.	.	.	.	.	.	.	.	.	.	.	.	.
8B-\	.	8ee-\	.	8gg\	.	8r	.	8r	.	8r	.	8r	.	.	.	.	.	.
8B-\J	.	8ee-\J	.	8gg\J	.	8B-\	qui	8e-\	qui	8b-\	qui	8gg\	qui	.	.	.	.	.
=19	=19	=19	=19	=19	=19	=19	=19	=19	=19	=19	=19	=19	=19	=19	=19	=19	=19	=19
!	!	!	!	!	!	!	!	!	!	!LO:LB:g=original	!	!	!	!	!	!	!	!
8B-\L	6 4	8ee-\L	.	8gg\L	.	4B-\	tol-	4e-\	tol-	4b-\	tol-	4gg\	tol-	2.ryy	2.ryy	.	.	.
8B-\	5 3	8ee-\	.	8gg\	.	.	.	.	.	.	.	.	.	.	.	.	.	.
8B-\	.	8ee-\	.	8gg\	.	4B-\	-lis	4e-\	-lis	4b-\	-lis	4gg\	-lis	.	.	.	.	.
8B-\	.	8ee-\J	.	8gg\J	.	.	.	.	.	.	.	.	.	.	.	.	.	.
*	*	*Xtremolo	*	*Xtremolo	*	*	*	*	*	*	*	*	*	*	*	*	*	*
8B-\	.	8b-\L	.	8ff\L	.	4B-\	pec-	4e-\	pec-	4b-\	pec-	4ff\	pec-	.	.	.	.	.
8B-\J	.	8b-\J	.	8ff\J	.	.	.	.	.	.	.	.	.	.	.	.	.	.
=20	=20	=20	=20	=20	=20	=20	=20	=20	=20	=20	=20	=20	=20	=20	=20	=20	=20	=20
*	*	*tremolo	*	*tremolo	*	*	*	*	*	*	*	*	*	*	*	*	*	*
!	!	!	!	!	!	!	!	!LO:LB:g=original	!	!	!	!	!	!	!	!	!	!
8B-\L	4# 2#	8cc\L	.	8een\L	.	2B-\	-ca-	2c\	-ca-	2g\	-ca-	2een\	-ca-	2.ryy	2.ryy	.	.	.
8B-\	.	8cc\	.	8ee\	.	.	.	.	.	.	.	.	.	.	.	.	.	.
8B-\	.	8cc\	.	8ee\	.	.	.	.	.	.	.	.	.	.	.	.	.	.
8B-\	.	8cc\	.	8ee\	.	.	.	.	.	.	.	.	.	.	.	.	.	.
8B-\	.	8cc\	.	8ee\	.	4B-\	-ta	4c\	-ta	4g\	-ta	4ee\	-ta	.	.	.	.	.
8B-\J	.	8cc\J	.	8ee\J	.	.	.	.	.	.	.	.	.	.	.	.	.	.
=21	=21	=21	=21	=21	=21	=21	=21	=21	=21	=21	=21	=21	=21	=21	=21	=21	=21	=21
!	!	!	!	!	!	!LO:LB:g=original	!	!	!	!	!	!	!	!	!	!	!	!
8A\L	x 6n	8cc\L	.	8ff\L	.	2A\	mun-	2c\	mun-	2a\	mun-	2ff\	mun-	2.ryy	2.ryy	.	.	.
8A\	.	8cc\	.	8ff\	.	.	.	.	.	.	.	.	.	.	.	.	.	.
8A\	x 5	8cc\	.	8ff\	.	.	.	.	.	.	.	.	.	.	.	.	.	.
8A\	.	8cc\	.	8ff\J	.	.	.	.	.	.	.	.	.	.	.	.	.	.
*	*	*	*	*Xtremolo	*	*	*	*	*	*	*	*	*	*	*	*	*	*
8A\	.	8cc\	.	8een\L	.	4A\	-di	4c\	-di	4a\	-di	4ee-\	-di	.	.	.	.	.
8A\J	.	8cc\J	.	8ee\J	.	.	.	.	.	.	.	.	.	.	.	.	.	.
=22	=22	=22	=22	=22	=22	=22	=22	=22	=22	=22	=22	=22	=22	=22	=22	=22	=22	=22
*	*	*	*	*tremolo	*	*	*	*	*	*	*	*	*	*	*	*	*	*
8A\L	4# 2#	8bn\L	.	8dd#X\L	.	2A\	mi-	2Bn\	mi-	2f#X\	mi-	2dd#X\	mi-	2.ryy	2.ryy	0.r	0.r	.
8A\	.	8b\	.	8dd#\	.	.	.	.	.	.	.	.	.	.	.	.	.	.
8A\	.	8b\	.	8dd#\	.	.	.	.	.	.	.	.	.	.	.	.	.	.
8A\	.	8b\	.	8dd#\	.	.	.	.	.	.	.	.	.	.	.	.	.	.
8A\	.	8b\	.	8dd#\	.	4A\	-se-	4B\	-se-	4f#\	-se-	4dd#\	-se-	.	.	.	.	.
8A\J	.	8b\J	.	8dd#\J	.	.	.	.	.	.	.	.	.	.	.	.	.	.
=23	=23	=23	=23	=23	=23	=23	=23	=23	=23	=23	=23	=23	=23	=23	=23	=23	=23	=23
!	!	!LO:SIC:v:s=8bn\L	!	!	!	!	!	!	!	!	!	!	!	!	!	!	!	!
8G\L	x 6\	8b-\L	.	8een\L	.	2G\	-re-	2Bn\	-re-	2gn\	-re-	2ee-\	-re-	2.ryy	2.ryy	.	.	.
!	!	!LO:SIC:v:s=8b\	!	!	!	!	!	!	!	!	!	!	!	!	!	!	!	!
8G\	.	8b-\	.	8ee\	.	.	.	.	.	.	.	.	.	.	.	.	.	.
!	!	!LO:SIC:v:s=8b\	!	!	!	!	!	!	!	!	!	!	!	!	!	!	!	!
8G\	x 5	8b-\	.	8ee\	.	.	.	.	.	.	.	.	.	.	.	.	.	.
!	!	!LO:SIC:v:s=8b\	!	!	!	!	!	!	!	!	!	!	!	!	!	!	!	!
8G\	.	8b-\	.	8ee\J	.	.	.	.	.	.	.	.	.	.	.	.	.	.
*	*	*	*	*Xtremolo	*	*	*	*	*	*	*	*	*	*	*	*	*	*
!	!	!LO:SIC:v:s=8b\	!	!	!	!	!	!	!	!	!	!	!	!	!	!	!	!
8G\	.	8b-\	.	8ddn\L	.	4G\	-re	4B\	-re	4g\	-re	4ddn\	-re	.	.	.	.	.
!	!	!LO:SIC:v:s=8b\J	!	!	!	!	!	!	!	!	!	!	!	!	!	!	!	!
8G\J	.	8b-\J	.	8dd\J	.	.	.	.	.	.	.	.	.	.	.	.	.	.
=24	=24	=24	=24	=24	=24	=24	=24	=24	=24	=24	=24	=24	=24	=24	=24	=24	=24	=24
*	*	*	*	*tremolo	*	*	*ij	*	*	*	*ij	*	*ij	*	*	*	*	*
8G\L	4# 2#	8a/L	.	8cc#X\L	.	2G\	mi-	2A\	no-	2en\	mi-	2cc#X\	mi-	2.ryy	2.ryy	.	.	.
8G\	.	8a/	.	8cc#\	.	.	.	.	.	.	.	.	.	.	.	.	.	.
8G\	.	8a/	.	8cc#\	.	.	.	.	.	.	.	.	.	.	.	.	.	.
8G\	.	8a/	.	8cc#\	.	.	.	.	.	.	.	.	.	.	.	.	.	.
8G\	.	8a/	.	8cc#\	.	4G\	-se-	4A\	-bis	4e\	-se-	4cc#\	-se-	.	.	.	.	.
8G\J	.	8a/J	.	8cc#\J	.	.	.	.	.	.	.	.	.	.	.	.	.	.
=25	=25	=25	=25	=25	=25	=25	=25	=25	=25	=25	=25	=25	=25	=25	=25	=25	=25	=25
*	*	*Xtremolo	*	*	*	*	*	*	*ij	*	*	*	*	*	*	*	*	*
!LO:LB:g=original	!	!LO:LB:g=original	!	!	!	!	!	!	!	!	!	!	!	!	!	!	!	!
8F\L	x 6	8a/L	.	8dd\L	.	2F\	-re-	2A\	no-	2fn\	-re-	2ddn\	-re-	2.ryy	2.ryy	.	.	.
8F\	.	8a/	.	8dd\	.	.	.	.	.	.	.	.	.	.	.	.	.	.
8F\	.	8a/	.	8dd\	.	.	.	.	.	.	.	.	.	.	.	.	.	.
8F\J	.	8a/	.	8dd\J	.	.	.	.	.	.	.	.	.	.	.	.	.	.
*Xtremolo	*	*	*	*Xtremolo	*	*	*	*	*	*	*	*	*	*	*	*	*	*
8G#X\L	.	8f/	.	8dd\L	.	4G#X\	-re	4Bn\	-bis	4f\	-re	4dd\	-re	.	.	.	.	.
*	*	*	*	*	*	*	*Xij	*	*	*	*Xij	*	*Xij	*	*	*	*	*
8G#\J	4 7	8f/J	.	8dd\J	.	.	.	.	.	.	.	.	.	.	.	.	.	.
=26	=26	=26	=26	=26	=26	=26	=26	=26	=26	=26	=26	=26	=26	=26	=26	=26	=26	=26
*tremolo	*	*tremolo	*	*tremolo	*	*	*	*	*	*	*	*	*	*	*	*	*	*
!	!	!	!	!LO:LB:g=original	!	!	!	!	!	!	!	!	!	!	!	!	!	!
8A\L	5 4	8en/L	.	8dd\L	.	2.A\	no-	2.A\	no-	2.en\	no-	2dd\	no-	2.ryy	2.ryy	1.r	1.r	.
8A\	.	8e/	.	8dd\	.	.	.	.	.	.	.	.	.	.	.	.	.	.
8A\	.	8e/	.	8dd\	.	.	.	.	.	.	.	.	.	.	.	.	.	.
8A\J	.	8e/	.	8dd\J	.	.	.	.	.	.	.	.	.	.	.	.	.	.
*Xtremolo	*	*	*	*Xtremolo	*	*	*	*	*	*	*	*	*	*	*	*	*	*
8AA/L	x #	8e/	.	8cc#X\L	.	.	.	.	.	.	.	4cc#X\	.	.	.	.	.	.
8AA/J	.	8e/J	.	8cc#\J	.	.	.	.	.	.	.	.	.	.	.	.	.	.
*	*	*Xtremolo	*	*	*	*	*	*	*	*	*	*	*	*	*	*	*	*
=27	=27	=27	=27	=27	=27	=27	=27	=27	=27	=27	=27	=27	=27	=27	=27	=27	=27	=27
!	!	!	!	!	!	!	!	!	!	!LO:LB:g=original	!	!LO:LB:g=original	!	!	!	!	!	!
4D\	.	4f/	.	4dd\	.	4D\	-bis	4A\	-bis	4f\	-bis	4dd\	-bis	2.ryy	2.ryy	.	.	.
*	*	*	*	*	*	*	*	*	*Xij	*	*	*	*	*	*	*	*	*
4DD/	.	8d/	.	16r	.	4r	.	4r	.	4r	.	4r	.	.	.	.	.	.
.	.	.	.	16aa\LL	.	.	.	.	.	.	.	.	.	.	.	.	.	.
.	.	8r	.	16een\	.	.	.	.	.	.	.	.	.	.	.	.	.	.
.	.	.	.	16ff\JJ	.	.	.	.	.	.	.	.	.	.	.	.	.	.
4r	.	4r	.	16cc#X\LL	.	4r	.	4r	.	4r	.	4r	.	.	.	.	.	.
.	.	.	.	16dd\	.	.	.	.	.	.	.	.	.	.	.	.	.	.
.	.	.	.	16g#X\	.	.	.	.	.	.	.	.	.	.	.	.	.	.
.	.	.	.	16a\JJ	.	.	.	.	.	.	.	.	.	.	.	.	.	.
=28	=28	=28	=28	=28	=28	=28	=28	=28	=28	=28	=28	=28	=28	=28	=28	=28	=28	=28
!	!	!	!LO:DY:a:t=p.	!	!	!	!	!	!	!	!	!	!	!	!	!	!	!
8En\L	x 6\	8A/	p	16gn/LL	.	1.r	.	1.r	.	1.r	.	1.r	.	2.ryy	2.ryy	2.a\	2.aa\	.
.	.	.	.	16A/	.	.	.	.	.	.	.	.	.	.	.	.	.	.
8E\	.	4A/	.	16c#X/	.	.	.	.	.	.	.	.	.	.	.	.	.	.
!	!	!	!	!LO:SIC:v:s=16en/JJ	!	!	!	!	!	!	!	!	!	!	!	!	!	!
.	.	.	.	16e-/JJ	.	.	.	.	.	.	.	.	.	.	.	.	.	.
8C#X\	6 5	.	.	16a\LL	.	.	.	.	.	.	.	.	.	.	.	.	.	.
.	.	.	.	16cc#X\	.	.	.	.	.	.	.	.	.	.	.	.	.	.
!	!	!	!	!LO:SIC:v:s=16een\	!	!	!	!	!	!	!	!	!	!	!	!	!	!
8C#\J	.	4A/	.	16ee-\	.	.	.	.	.	.	.	.	.	.	.	.	.	.
.	.	.	.	16gg\JJ	.	.	.	.	.	.	.	.	.	.	.	.	.	.
8D\L	.	.	.	16gg\LL	.	.	.	.	.	.	.	.	.	.	.	.	.	.
.	.	.	.	16ff\	.	.	.	.	.	.	.	.	.	.	.	.	.	.
!	!	!	!	!LO:SIC:v:s=16een\	!	!	!	!	!	!	!	!	!	!	!	!	!	!
8F\J	x 6	8A/	.	16ee-\	.	.	.	.	.	.	.	.	.	.	.	.	.	.
.	.	.	.	16dd\JJ	.	.	.	.	.	.	.	.	.	.	.	.	.	.
=29	=29	=29	=29	=29	=29	=29	=29	=29	=29	=29	=29	=29	=29	=29	=29	=29	=29	=29
!LO:SIC:v:s=8En\L	!	!	!	!	!	!	!	!	!	!	!	!	!	!	!	!	!	!
8E-\L	x 6\	8A/	.	16dd\LL	.	.	.	.	.	.	.	.	.	2.ryy	2.ryy	2.a\	2.aa\	.
.	.	.	.	16cc#X\	.	.	.	.	.	.	.	.	.	.	.	.	.	.
!LO:SIC:v:s=8En\	!	!	!	!	!	!	!	!	!	!	!	!	!	!	!	!	!	!
8E-\	.	4A/	.	16b-\	.	.	.	.	.	.	.	.	.	.	.	.	.	.
.	.	.	.	16a\JJ	.	.	.	.	.	.	.	.	.	.	.	.	.	.
8C#X\	6 5	.	.	16a\LL	.	.	.	.	.	.	.	.	.	.	.	.	.	.
.	.	.	.	16cc#\	.	.	.	.	.	.	.	.	.	.	.	.	.	.
!	!	!	!	!LO:SIC:v:s=16een\	!	!	!	!	!	!	!	!	!	!	!	!	!	!
8C#\	.	4A/	.	16ee-\	.	.	.	.	.	.	.	.	.	.	.	.	.	.
.	.	.	.	16gg\JJ	.	.	.	.	.	.	.	.	.	.	.	.	.	.
8D\	.	.	.	16gg\LL	.	.	.	.	.	.	.	.	.	.	.	.	.	.
.	.	.	.	16ff\	.	.	.	.	.	.	.	.	.	.	.	.	.	.
!	!	!	!	!LO:SIC:v:s=16een\	!	!	!	!	!	!	!	!	!	!	!	!	!	!
8F\J	x 6	8A/	.	16ee-\	.	.	.	.	.	.	.	.	.	.	.	.	.	.
.	.	.	.	16dd\JJ	.	.	.	.	.	.	.	.	.	.	.	.	.	.
=30	=30	=30	=30	=30	=30	=30	=30	=30	=30	=30	=30	=30	=30	=30	=30	=30	=30	=30
*	*	*tremolo	*	*	*	*	*	*	*	*	*	*	*	*	*	*	*	*
!LO:TX:a:t=P:problem:mixedbeam	!	!	!	!LO:LB:g=original	!	!	!	!	!	!	!	!	!	!	!	!	!LO:LB:g=original	!
.	.	.	.	.	.	.	.	.	.	.	.	.	.	.	.	.	8qqaa/	.
8G\L	6 5	8d/L	.	16cc\LL	.	2.r	.	2.r	.	2.r	.	2.r	.	2.ryy	2.ryy	4dd\	8bb-\L	.
.	.	.	.	16b-X\	.	.	.	.	.	.	.	.	.	.	.	.	.	.
8G\	.	8d/	.	16a\	.	.	.	.	.	.	.	.	.	.	.	.	16aa\L	.
.	.	.	.	16g\JJ	.	.	.	.	.	.	.	.	.	.	.	.	16gg\JJ	.
8A\	x 4	8d/	.	4f/	.	.	.	.	.	.	.	.	.	.	.	4dd\	4ff\	.
8A\	.	8d/J	.	.	.	.	.	.	.	.	.	.	.	.	.	.	.	.
*	*	*Xtremolo	*	*	*	*	*	*	*	*	*	*	*	*	*	*	*	*
!	!	!	!	!	!	!	!	!	!	!	!	!	!	!	!	!	!LO:SIC:v:s=4een\	!
8AA/	x #	8c#X/L	.	4en/	.	.	.	.	.	.	.	.	.	.	.	4cc\	4ee-\	.
8AA/J	.	8c#/J	.	.	.	.	.	.	.	.	.	.	.	.	.	.	.	.
=31	=31	=31	=31	=31	=31	=31	=31	=31	=31	=31	=31	=31	=31	=31	=31	=31	=31	=31
*tremolo	*	*	*	*	*	*	*	*	*	*	*	*	*	*	*	*	*	*
!LO:LB:g=original	!	!	!	!LO:SIC:v:s=8d\L	!	!	!	!	!	!	!	!	!	!	!	!LO:LB:g=original	!	!
!	!	!	!LO:DY:a:t=for	!LO:TX:a:t=P:problem:mixedbeam	!	!	!	!	!	!	!	!	!	!	!	!	!	!
8D\L	.	8d/L	f	8e-/L	.	2D\	A-	2d\	a-	2a\	A-	2ff\	A-	2.ryy	2.ryy	4dd\	4dd\	.
8D\	.	8a/J	.	8ff\J	.	.	.	.	.	.	.	.	.	.	.	.	.	.
*	*	*tremolo	*	*tremolo	*	*	*	*	*	*	*	*	*	*	*	*	*	*
8D\	.	8a/L	.	8ff\L	.	.	.	.	.	.	.	.	.	.	.	4r	4r	.
8D\	.	8a/	.	8ff\	.	.	.	.	.	.	.	.	.	.	.	.	.	.
8D\	.	8a/	.	8ff\	.	4D\	-gnus	4d\	-gnus	4a\	-gnus	4ff\	-gnus	.	.	4r	4r	.
8D\J	.	8a/J	.	8ff\J	.	.	.	.	.	.	.	.	.	.	.	.	.	.
*	*	*	*	*Xtremolo	*	*	*	*	*	*	*	*	*	*	*	*	*	*
=32	=32	=32	=32	=32	=32	=32	=32	=32	=32	=32	=32	=32	=32	=32	=32	=32	=32	=32
!	!	!	!	!	!	!LO:LB:g=original	!	!LO:LB:g=original	!	!	!	!	!	!	!	!	!	!
8A\L	6 5-	8f/L	.	16ff\LL	.	4A\	De-	4c\	De-	4f\	De-	8ff\L	De-	2.ryy	2.ryy	2.cc\	2.ee-\	.
.	.	.	.	16ee-X\	.	.	.	.	.	.	.	.	.	.	.	.	.	.
8A\	.	8f/	.	16dd\	.	.	.	.	.	.	.	8ee-\J	.	.	.	.	.	.
.	.	.	.	16ee-\JJ	.	.	.	.	.	.	.	.	.	.	.	.	.	.
*	*	*	*	*tremolo	*	*	*	*	*	*	*	*	*	*	*	*	*	*
8A\	.	8f/	.	8ee-\L	.	4A\	-i	4c\	-i	4f\	-i	4.ee-\	-i	.	.	.	.	.
8A\	.	8f/	.	8ee-\	.	.	.	.	.	.	.	.	.	.	.	.	.	.
8A\	.	8f/	.	8ee-\	.	4A\	qui	4c\	qui	4f\	qui	.	.	.	.	.	.	.
8A\J	.	8f/J	.	8ee-\J	.	.	.	.	.	.	.	8ee-\	qui	.	.	.	.	.
*	*	*	*	*Xtremolo	*	*	*	*	*	*	*	*	*	*	*	*	*	*
=33	=33	=33	=33	=33	=33	=33	=33	=33	=33	=33	=33	=33	=33	=33	=33	=33	=33	=33
!	!	!LO:LB:g=original	!	!	!	!	!	!	!	!	!	!	!	!	!	!	!	!
8B-\L	.	8f/L	.	16ee-\LL	.	4B-\	tol-	4B-\	tol-	4f\	tol-	8ee-\L	tol-	2.ryy	2.ryy	2dd\	2dd\	.
.	.	.	.	16dd\	.	.	.	.	.	.	.	.	.	.	.	.	.	.
8B-\	.	8f/	.	16cc\	.	.	.	.	.	.	.	8dd\J	.	.	.	.	.	.
.	.	.	.	16dd\JJ	.	.	.	.	.	.	.	.	.	.	.	.	.	.
*	*	*	*	*tremolo	*	*	*	*	*	*	*	*	*	*	*	*	*	*
8B-\	.	8f/	.	8dd\L	.	4B-\	-lis	4B-\	-lis	4f\	-lis	4.dd\	-lis	.	.	.	.	.
8B-\J	.	8f/	.	8dd\	.	.	.	.	.	.	.	.	.	.	.	.	.	.
*Xtremolo	*	*	*	*	*	*	*	*	*	*	*	*	*	*	*	*	*	*
8BB-/L	.	8f/	.	8dd\	.	4BB-/	pec-	4B-\	pec-	4f\	pec-	.	.	.	.	4dd\	4dd\	.
8BB-/J	.	8f/J	.	8dd\J	.	.	.	.	.	.	.	8dd\	pec-	.	.	.	.	.
*	*	*	*	*Xtremolo	*	*	*	*	*	*	*	*	*	*	*	*	*	*
=34	=34	=34	=34	=34	=34	=34	=34	=34	=34	=34	=34	=34	=34	=34	=34	=34	=34	=34
*tremolo	*	*	*	*	*	*	*	*	*	*	*	*	*	*	*	*	*	*
8E-\L	x 7	8g/L	.	8dd\L	.	2E-\	-ca-	4B-\	-ca-	2g\	-ca-	4dd\	-ca-	2.ryy	2.ryy	2.gg\	4dd\	.
8E-\	x 6	8g/	.	8dd\	.	.	.	.	.	.	.	.	.	.	.	.	.	.
8E-\	.	8g/	.	8cc\	.	.	.	4c\	-ta	.	.	4cc\	.	.	.	.	4cc\	.
8E-\J	.	8g/	.	8cc\J	.	.	.	.	.	.	.	.	.	.	.	.	.	.
*Xtremolo	*	*	*	*	*	*	*	*	*	*	*	*	*	*	*	*	*	*
8En\L	.	8g/	.	8b-\L	.	4En\	-ta	4d\	.	4g\	-ta	4b-\	-ta	.	.	.	4b-\	.
8E\J	.	8g/J	.	8b-\J	.	.	.	.	.	.	.	.	.	.	.	.	.	.
=35	=35	=35	=35	=35	=35	=35	=35	=35	=35	=35	=35	=35	=35	=35	=35	=35	=35	=35
.	.	.	.	8qqcc/	.	.	.	.	.	.	.	.	.	.	.	.	.	.
!LO:SIC:v:s=4F\	!	!	!	!	!	!	!	!	!	!	!	!	!	!	!	!	!	!
4E-\	.	4c/	.	8b-/L	.	4F\	mun-	4c\	mun-	4g\	mun-	4b-\	mun-	2.ryy	2.ryy	4gg\	4b-\	.
.	.	.	.	16a/L	.	.	.	.	.	.	.	.	.	.	.	.	.	.
.	.	.	.	16b-/JJ	.	.	.	.	.	.	.	.	.	.	.	.	.	.
!	!	!	!LO:DY:a:t=p.	!	!LO:DY:a:t=p.	!	!	!	!	!	!	!	!	!	!	!	!	!
4FF/	.	8c/L	p	8a\L	p	4F\	-di	4c\	-di	4f\	-di	4a\	-di	.	.	4ff\	4a\	.
.	.	8f/	.	8ff\	.	.	.	.	.	.	.	.	.	.	.	.	.	.
4r	.	8f/	.	8ff\	.	4r	.	4r	.	4r	.	4r	.	.	.	4r	4r	.
.	.	8f/J	.	8ff\J	.	.	.	.	.	.	.	.	.	.	.	.	.	.
=36	=36	=36	=36	=36	=36	=36	=36	=36	=36	=36	=36	=36	=36	=36	=36	=36	=36	=36
!	!	!	!	!LO:LB:g=original	!	!	!	!	!	!	!	!	!	!	!	!	!	!
4r	.	2.f/	.	16ff\LL	.	1.r	.	1.r	.	1.r	.	1.r	.	2.ryy	2.ryy	1.r	1.r	.
.	.	.	.	16ee-X\	.	.	.	.	.	.	.	.	.	.	.	.	.	.
.	.	.	.	16dd\	.	.	.	.	.	.	.	.	.	.	.	.	.	.
.	.	.	.	16ee-\JJ	.	.	.	.	.	.	.	.	.	.	.	.	.	.
(4A\	.	.	.	4ee-\	.	.	.	.	.	.	.	.	.	.	.	.	.	.
4B-\)	.	.	.	4dd\	.	.	.	.	.	.	.	.	.	.	.	.	.	.
=37	=37	=37	=37	=37	=37	=37	=37	=37	=37	=37	=37	=37	=37	=37	=37	=37	=37	=37
4r	.	2.g/	.	16dd\LL	.	.	.	.	.	.	.	.	.	2.ryy	2.ryy	.	.	.
.	.	.	.	16cc\	.	.	.	.	.	.	.	.	.	.	.	.	.	.
.	.	.	.	16b-\	.	.	.	.	.	.	.	.	.	.	.	.	.	.
.	.	.	.	16cc\JJ	.	.	.	.	.	.	.	.	.	.	.	.	.	.
4E-\	.	.	.	4cc\	.	.	.	.	.	.	.	.	.	.	.	.	.	.
4En\	.	.	.	4b-\	.	.	.	.	.	.	.	.	.	.	.	.	.	.
=38	=38	=38	=38	=38	=38	=38	=38	=38	=38	=38	=38	=38	=38	=38	=38	=38	=38	=38
.	.	.	.	16qqcc/	.	.	.	.	.	.	.	.	.	.	.	.	.	.
4F\	.	4g/	.	8b-\L	.	4r	.	4r	.	4r	.	4r	.	2.ryy	2.ryy	4r	4r	.
.	.	.	.	16a\L	.	.	.	.	.	.	.	.	.	.	.	.	.	.
.	.	.	.	16b-\JJ	.	.	.	.	.	.	.	.	.	.	.	.	.	.
4FF/	.	4f/	.	4a/	.	4r	.	4r	.	4r	.	4r	.	.	.	4r	4r	.
4r	.	4r	.	4r	.	4F\	pec-	4A\	pec-	4f\	pec-	4cc\	pec-	.	.	4a/	4cc\	.
=39	=39	=39	=39	=39	=39	=39	=39	=39	=39	=39	=39	=39	=39	=39	=39	=39	=39	=39
!LO:LB:g=original	!	!	!	!	!	!	!	!	!	!LO:LB:g=original	!	!LO:LB:g=original	!	!	!	!	!	!
1.r	.	1.r	.	1.r	.	2.F\	-ca-	2.ryy	.	2.f\	-ca-	2dd\	-ca-	2.ryy	2.ryy	2b-\	2dd\	.
.	.	.	.	.	.	.	.	.	.	.	.	4cc\	.	.	.	4a\	4cc\	.
=40	=40	=40	=40	=40	=40	=40	=40	=40	=40	=40	=40	=40	=40	=40	=40	=40	=40	=40
.	.	.	.	.	.	2F\	.	2B-\	-ca-	2f\	.	2dd\	.	2.ryy	2.ryy	2b-\	2dd\	.
.	.	.	.	.	.	4F\	-ta	4B-\	-ta	4f\	-ta	4ee-X\	-ta	.	.	4cc\	4ee-\	.
=41	=41	=41	=41	=41	=41	=41	=41	=41	=41	=41	=41	=41	=41	=41	=41	=41	=41	=41
2.r	.	2.r	.	2.r	.	2.F\	mun-	2B-\	mun-	2f\	mun-	2dd\	mun-	2.ryy	2.ryy	2b-\	2dd\	.
!	!	!	!	!	!	!	!	!	!	!	!	!	!	!	!	!LO:SIC:v:s=4g/	!LO:SIC:v:s=4een\	!
.	.	.	.	.	.	.	.	4c\	.	4b-\	.	4een\	.	.	.	4f/	4ee-\	.
=42	=42	=42	=42	=42	=42	=42	=42	=42	=42	=42	=42	=42	=42	=42	=42	=42	=42	=42
!	!	!	!LO:DY:a:t=p.	!	!LO:DY:a:t=piano	!LO:LB:g=original	!	!	!	!	!	!	!	!	!	!	!LO:LB:g=original	!
4F\	.	4A/	p	4f/	p	4F\	-di	4c\	-di	4a\	-di	4ff\	-di	2.ryy	2.ryy	4a/	4ee-\	.
4C/	.	4A/	.	4f/	.	4r	.	4r	.	4r	.	4r	.	.	.	4a/	4ee-\	.
!	!	!	!	!	!	!	!	!LO:TX:a:t=Dona Nobis\nVerte	!	!	!	!	!	!	!	!	!	!
4AA/	.	4A/	.	4f/	.	4r	.	4r	.	4r	.	4r	.	.	.	4a/	4ee-\	.
!	!	!	!	!	!	!	!	!	!	!LO:TX:b:t=Dona Verte Cito	!	!	!	!	!	!	!	!
==	==	==	==	==	==	==	==	==	==	==	==	==	==	==	==	==	==	==
*-	*-	*-	*-	*-	*-	*-	*-	*-	*-	*-	*-	*-	*-	*-	*-	*-	*-	*-
!!!system-decoration: [(s1,s2)][(s3,s4)][(s5,s6,s7,s8)][(s9,s10)]s11
!!!ENC:Berenika Jozajtis
!!!END:2021-11-22
!!!ENC:Krzysztof Stępień
!!!END:2021-12-01
!!!RDF**kern: | = vertical stroke
!!!RDF**kern: > = above
!!!RDF**kern: < = below
